assets/images/tg-icon.svg

<svg xmlns="http://www.w3.org/2000/svg" width="45" height="45" viewBox="0 0 45 45" fill="none">
  <g clip-path="url(#clip0_8329_456)">
    <path d="M30.0022 16.579C26.345 19.575 22.6937 22.575 19.0483 25.579C18.9899 25.6293 18.9434 25.692 18.9121 25.7625L19.294 29.9428C19.7973 28.9747 20.2947 28.0066 20.8009 27.0415C20.9069 26.8433 21.0361 26.6584 21.1858 26.4908C23.8463 23.55 26.5108 20.6132 29.1792 17.6803C29.5108 17.3132 29.8404 16.9441 30.168 16.573L30.1088 16.5227C30.0644 16.5523 30.0289 16.579 30.0022 16.579Z" fill="white" fill-opacity="0.8"/>
    <path d="M22.5 0C18.0499 0 13.6998 1.3196 9.99968 3.79193C6.29957 6.26427 3.41569 9.77829 1.71272 13.8896C0.00974884 18.001 -0.435826 22.525 0.432341 26.8895C1.30051 31.2541 3.44343 35.2632 6.59011 38.4099C9.73679 41.5566 13.7459 43.6995 18.1105 44.5677C22.475 45.4358 26.999 44.9903 31.1104 43.2873C35.2217 41.5843 38.7357 38.7004 41.2081 35.0003C43.6804 31.3002 45 26.9501 45 22.5C45 16.5326 42.6295 10.8097 38.4099 6.5901C34.1903 2.37053 28.4674 0 22.5 0ZM33.454 13.728C33.2142 14.8115 32.9744 15.9128 32.7286 17.0112L29.7237 30.5201C29.478 31.6155 29.472 31.6184 28.4832 31.0944C26.8135 30.2062 25.1408 29.3359 23.4799 28.4299C23.3637 28.3451 23.2205 28.3056 23.0772 28.3187C22.9339 28.3317 22.8003 28.3966 22.7013 28.501C21.5171 29.5194 20.3329 30.5141 19.1487 31.5059C19.1032 31.5425 19.0501 31.5683 18.9933 31.5815C18.9365 31.5947 18.8774 31.5949 18.8205 31.5821C18.7636 31.5693 18.7103 31.5438 18.6646 31.5075C18.6189 31.4713 18.582 31.4252 18.5566 31.3727C18.5212 31.3046 18.5001 31.2301 18.4944 31.1536L17.9763 25.6974L17.8994 25.6618C15.7855 24.824 13.6776 23.9625 11.5668 23.1099C11.436 23.0666 11.3092 23.0121 11.1878 22.947C11.0931 22.8849 10.9421 22.7664 10.954 22.7072C10.9743 22.6467 11.0069 22.5911 11.0496 22.5437C11.0924 22.4963 11.1445 22.4583 11.2026 22.4319C12.4658 21.8931 13.7339 21.3612 15.0069 20.8362L32.7049 13.5651C32.8322 13.5148 32.9566 13.4556 33.0898 13.4171C33.3296 13.3431 33.4747 13.4674 33.454 13.728Z" fill="white" fill-opacity="0.8"/>
  </g>
  <defs>
    <clipPath id="clip0_8329_456">
      <rect width="45" height="45" fill="white"/>
    </clipPath>
  </defs>
</svg>

<svg xmlns="http://www.w3.org/2000/svg" width="45" height="45" fill="none" viewBox="0 0 45 45"><g fill="#fff" fill-opacity=".8" clip-path="url(#a)"><path d="M30.002 16.579a4900 4900 0 0 0-10.954 9 .5.5 0 0 0-.136.183l.382 4.18c.503-.967 1-1.935 1.507-2.9a2.8 2.8 0 0 1 .385-.551q3.99-4.412 7.993-8.81.498-.552.989-1.108l-.06-.05c-.044.03-.08.056-.106.056"/><path d="M22.5 0a22.5 22.5 0 1 0 0 45 22.5 22.5 0 0 0 0-45m10.954 13.728c-.24 1.084-.48 2.185-.725 3.283l-3.005 13.51c-.246 1.095-.252 1.097-1.24.573-1.67-.888-3.343-1.758-5.004-2.664a.59.59 0 0 0-.779.071 355 355 0 0 1-3.552 3.005.388.388 0 0 1-.592-.133.6.6 0 0 1-.063-.22l-.518-5.456-.077-.035c-2.113-.838-4.221-1.7-6.332-2.552a2.4 2.4 0 0 1-.38-.163c-.094-.062-.245-.18-.233-.24a.47.47 0 0 1 .249-.275q1.894-.808 3.804-1.596l17.698-7.27c.127-.051.252-.11.385-.149.24-.074.385.05.364.311"/></g><defs><clipPath id="a"><path fill="#fff" d="M0 0h45v45H0z"/></clipPath></defs></svg>
